X: 1
T: Hora Fetelor  [Am]
O: Romania
M: 3/8
L: 1/16
S: Yaron Shragai (printed MS of unknown origin)
K: Am
E^F^G \
"A"|: "Am"A3ece | A3ece | A6 | "A7"^c6 |\
"Dm"d3afa | d3afa | d6- | d3^ga^a |
"E"b3aa^g | ^g3ffe | "Am"e2a2a2 | "Dm"a3ggf |\
"C"e3ddc | "G"g3fgf | "C"e6- | e3^ga^a |
"E"b3aa^g | ^g3ffe | "Am"e2a2a2 | "Dm"a3ggf |\
"Am"e3fde | "E7"c3dBc | "Am"A3aec |1 A3E^F^G :|2 "Am"A6 |]
"B"|: "C"g2c'2c'2 | c'3bba | "G"g2b2b2 | b6 |\
"F"f2a2a2 | a3ggf | "C"e2g2g2 | "A7"g6 |\
"Dm"d2f2f2 | f3eed |
"Am"c2e2e2 | e3egf |\
[1 "C"e3ddc | "G"g3fgf | "C"e6- | "G7"e4z2 :|\
[2 "Am"e3fde | "E7"c3dBc | "Am"A3aec | A6 |]
"C"|: "G"G3ABc | "G7"d3efd | "C"f2e4- | e6 |\
"G"d3ccB | "G7"g3fgf | "C"e6- | e6 |
"G"G3ABc | "G7"d3efd | "Dm"e2f4- | f6 |\
"Am"e3fde | "E7"c3dBc | "Am"A3aec |1 A6 :|2 A3 |]


